!!!SOCIAL_FUNCTION:	game songs
!!!PDT:	1943
!!!OTL: No_67_Gambling_Song_(a).krn
!!!REG: British Columbia
**kern
*staff1
=1-
*clefG2
*k[f#c#]
*M3/4
2r
8d/L
8d/J
=2!|:
4e/
8e/
8r
8e/L
8e/J
=3||
*M5/4
16f#/LK
[8.e/J
2e/_
8e/]
8r
8d/L
8d/J
=4||
*M3/4
4e/
8e/
8r
8e/L
8d/J
=5||
*M5/4
[2.d/
8d/]
8r
8d/L
8d/J
=6||
*M3/4
4f#/
8f#/
8r
8f#/L
8f#/J
=7||
*M5/4
16g/LK
[8.f#/J
2f#/_
8f#/]
8r
8e/L
8e/J
=8||
*M3/4
4f#/
8f#/
8r
8f#/L
8e/J
=9||
*M5/4
[2.e/
8e/]
8r
8d/L
8d/J
=10||
*M3/4
4f#/
8f#/
8r
8f#/L
8e/J
=11||
*M5/4
[2.e/
8e/]
8r
8d/L
8d/J
=12||
*M3/4
4e/
8e/
8r
8e/L
8d/J
=13||
*M2/4
2d/
=14
4r
8d/L
8d/J
==:|!
*-
